cc-by-sa/knowledge/modules/using_type/lessons/typesetting_on_a_curved_path/images/curved_5.svg

<svg xmlns="http://www.w3.org/2000/svg" width="1920" height="1080" fill="none"><path fill="#3C4043" d="m1306.03 414.495-57.62-101.035 7.61-4.356 54.27 95.196 9.86-5.647 3.35 5.839-17.52 10.003h.05ZM1331.16 400.473 1293.54 290.2l13.54-5.552 50.5 105.008-8.24 3.35-14.88-31.78-6.8 2.776 11.68 33.12-8.23 3.351h.05Zm-5.94-42.693 6.61-2.728-28.77-61.693-.62.239 22.78 64.134v.048ZM1366.67 386.881l-1.67-6.413-15.18-102.423-10.48 2.728-1.67-6.509 18.57-4.834 1.67 6.317 15.08 102.567 11.49-3.015 1.72 6.509-19.53 5.073ZM1401.37 341.268l-20.25-77.008 9.15-1.149 13.92 66h-.19l-2.49-67.388 9.15-1.101-.87 79.593-8.47 1.053h.05Zm4.4 37.141-5.45-44.368 8.8-1.101 5.46 44.368-8.81 1.101ZM1453.78 375.776 1464.79 260l14.83 1.388c6.7.622 9.96 4.69 9.77 12.157-.19 7.466-1.44 23.069-3.69 46.856-2.25 23.835-4.02 39.437-5.21 46.76-1.2 7.323-5.17 10.673-11.87 10.051l-14.84-1.388v-.048Zm9.38-5.935 3.54.335c2.73.24 4.6-2.249 5.51-7.562.95-5.312 2.53-19.623 4.73-42.931 2.21-23.404 3.4-37.763 3.45-43.219.1-5.408-1.24-8.232-3.97-8.519l-3.5-.335-9.71 102.231h-.05ZM1503.12 383.817c-7.85-1.915-11.15-6.701-9.91-14.311 1.24-7.658 4.69-22.973 10.29-46.042 5.6-22.974 9.57-38.194 11.97-45.612 2.39-7.419 7.51-10.195 15.41-8.28 7.94 1.914 11.24 6.748 9.95 14.454-1.29 7.706-4.69 23.069-10.29 45.995-5.6 23.069-9.57 38.288-11.96 45.611-2.4 7.371-7.52 10.099-15.46 8.185Zm1.67-6.605c2.35.574 4.41-1.771 6.22-6.988 1.82-5.217 5.51-19.336 11.06-42.262 5.6-23.069 8.81-37.331 9.57-42.787.82-5.504 0-8.52-2.29-9.094-2.45-.574-4.6 1.723-6.37 6.988-1.77 5.264-5.46 19.383-11.06 42.453-5.55 22.925-8.75 37.14-9.57 42.644-.81 5.504 0 8.519 2.44 9.094v-.048ZM1537.2 394.585c-6.61-2.68-8.71-7.61-6.32-14.885 2.39-7.227 8.18-22.208 17.37-44.894 9.24-22.734 15.42-37.284 18.53-43.649 3.11-6.366 8.47-8.041 16.03-4.978 7.37 3.015 9.91 8.089 7.61 15.316s-6.27 17.613-11.77 31.253l-8.14-3.302c5.7-14.072 9.33-23.5 10.91-28.334s1.2-7.754-1.1-8.663c-2.34-.957-4.55.622-6.6 4.643-2.06 4.068-7.95 17.9-17.52 41.591-9.05 22.351-14.41 36.087-16.03 41.161-1.63 5.073-1.34 8.04.86 8.95 1.58.67 3.16.335 4.64-.91 1.48-1.244 3.97-6.174 7.51-14.789l7.9-19.479-4.64-1.867 2.44-5.983 12.54 5.074-19.82 48.866-4.64-1.867 1.53-4.929c-2.77 3.063-6.55 3.685-11.2 1.77l-.09-.095ZM1571.94 411.817c-7.03-4.116-9.04-9.19-6.07-15.172 2.96-5.983 8.99-16.656 17.99-31.972l7.56 4.451c-9.14 15.555-14.59 25.271-16.46 29.196-1.87 3.924-1.72 6.461.29 7.658 2.2 1.292 4.5.191 7.03-3.255 2.49-3.446 5.17-7.658 8.09-12.54 4.4-7.514 7.32-13.018 8.76-16.512 1.44-3.494 1.15-7.179-.77-11.056-3.06-5.791-3.87-10.816-2.48-15.172 1.38-4.307 4.45-10.433 9.14-18.426 3.11-5.313 6.6-10.769 10.48-16.417 3.88-5.647 9.33-6.413 16.32-2.297s8.9 9.285 5.79 15.603c-3.11 6.27-8.9 16.655-17.37 31.062l-7.66-4.499c8.66-14.742 13.97-24.218 15.94-28.334 1.96-4.164 1.91-6.796-.19-8.041-2.06-1.196-4.46 0-7.04 3.781-2.63 3.733-5.22 7.802-7.85 12.253-4.02 6.844-6.7 12.013-8.09 15.555-1.39 3.541-1.15 7.275.72 11.151 3.02 5.839 3.92 10.865 2.63 15.029s-4.5 10.625-9.62 19.336a285.413 285.413 0 0 1-10.62 16.655c-3.83 5.504-9.29 6.174-16.42 2.01l-.1-.047Z"/><circle cx="1446.28" cy="631.644" r="226.293" stroke="#FF6D7F" stroke-dasharray="22.24 22.24" stroke-linejoin="round" stroke-width="10"/><path fill="#3C4043" d="m214.622 665.005-116.255-3.111.287-11.295 108.262 2.919 1.628-61.214 7.993.191-1.963 72.51h.048ZM216.058 577.612l-86.964-90.122 7.275-15.89 125.013 6.844-4.93 10.721-36.948-2.106-24.266 53.126 25.749 26.563-4.977 10.912.048-.048ZM189.16 534.92l22.351-48.962-72.606-3.829-.143.335 50.398 52.456ZM269.758 470.546l-5.648-6.413-13.497-120.898-51.594 45.277-5.265-6.03 61.262-53.749 5.361 6.079 13.784 121.089 54.992-48.244 5.361 6.078-64.661 56.763-.095.048ZM375.101 347.495l-65.378-53.222 12.061-3.877 55.854 46.521-1.149.383 18.474-70.308 11.966-3.829-22.112 81.268-9.764 3.111.048-.047Zm13.449 43.649-15.89-49.632 10.769-3.446 15.89 49.632-10.769 3.446ZM501.934 374.01l32.928-111.565 46.09 13.641c14.598 4.307 24.314 11.534 29.1 21.681 4.786 10.146 4.068 25.749-2.154 46.856-6.222 21.107-14.119 34.604-23.643 40.586-9.525 5.935-21.633 6.797-36.231 2.489l-46.09-13.64v-.048Zm13.114-4.499 32.545 9.62c11.535 3.398 21.203 2.776 29.1-1.915 7.897-4.69 14.645-16.607 20.293-35.752 5.695-19.288 6.509-32.976 2.393-41.16-4.068-8.137-11.87-13.928-23.404-17.326l-32.546-9.62-28.381 96.153ZM643.697 441.494c-12.731-11.295-19.527-23.308-20.341-36.135-.814-12.827 5.791-27.137 19.767-42.931 14.071-15.843 27.472-24.218 40.299-24.984 12.827-.814 25.606 4.451 38.384 15.746 12.827 11.343 19.624 23.404 20.389 36.231.766 12.827-5.887 27.185-19.958 43.075-14.023 15.842-27.424 24.122-40.203 24.888-12.779.766-25.606-4.547-38.385-15.89h.048Zm5.36-5.935c9.429 8.328 19.336 12.253 29.818 11.822 10.482-.431 22.112-7.945 34.891-22.399 12.922-14.598 18.953-27.089 18.187-37.571-.766-10.482-5.887-19.862-15.268-28.238-9.428-8.328-19.383-12.252-29.913-11.774-10.529.479-22.208 7.993-35.13 22.591-12.779 14.454-18.762 26.898-17.948 37.379.814 10.482 5.935 19.863 15.363 28.19ZM710.226 532.335c-6.509-15.459-6.94-28.621-1.244-39.438 5.695-10.816 17.996-20.245 36.853-28.19 18.857-7.945 34.173-10.099 45.851-6.509 11.678 3.637 20.82 13.353 27.472 29.195 6.414 15.172 7.132 27.903 2.154 38.098-4.977 10.194-13.305 17.756-24.983 22.686l-4.404-10.482c10.338-4.451 17.422-10.625 21.299-18.474 3.876-7.849 3.446-17.374-1.34-28.669-4.93-11.678-12.014-19.049-21.251-21.968-9.237-2.968-22.782-.67-40.538 6.796-17.182 7.227-28.095 15.268-32.642 24.026-4.546 8.759-4.403 19.001.527 30.631 4.642 11.009 10.338 18.188 17.134 21.49 6.796 3.303 15.172 2.92 25.175-1.149l8.184-3.446-12.731-30.248 6.605-2.776 17.374 41.304-50.159 21.155-3.015-7.131 19.671-8.855c-15.507 1.388-27.472-7.897-35.896-27.951l-.096-.095ZM731.382 640.693c.527-16.751 4.116-28.668 10.865-35.656 6.748-6.988 18.283-10.29 34.651-9.764l-.335 11.295c-14.406-.43-24.122 2.25-29.099 8.041-4.978 5.791-7.658 14.55-8.041 26.276-.335 11.582 1.388 20.484 5.169 26.706 3.781 6.222 8.95 9.381 15.555 9.62 7.801.24 13.401-3.063 16.799-9.859 3.398-6.796 6.797-16.416 10.147-28.765 3.972-14.406 8.232-25.079 12.683-31.923 4.451-6.844 11.439-10.147 20.963-9.907 8.711.287 15.794 4.259 21.203 11.917 5.408 7.706 7.849 19.528 7.37 35.561-.478 16.704-4.164 28.573-10.96 35.657-6.796 7.083-17.948 10.386-33.503 9.907l.335-11.439c14.072.431 23.548-2.345 28.382-8.232 4.834-5.887 7.466-14.693 7.801-26.276.335-11.486-1.34-20.341-5.073-26.515-3.733-6.222-8.663-9.381-14.885-9.572-7.466-.239-12.97 3.063-16.56 9.907-3.589 6.844-6.987 16.273-10.29 28.334-4.068 14.741-8.184 25.606-12.396 32.546-4.212 6.939-11.247 10.242-21.107 9.955-9.189-.287-16.56-4.212-22.112-11.774-5.551-7.562-8.088-19.528-7.562-35.896v-.144Z"/><circle cx="473.328" cy="631.645" r="226.293" stroke="#FF6D7F" stroke-dasharray="22.24 22.24" stroke-linejoin="round" stroke-width="10"/></svg>

<svg width="1920" height="1080" viewBox="0 0 1920 1080" fill="none" xmlns="http://www.w3.org/2000/svg">
<path d="M1306.03 414.495L1248.41 313.46L1256.02 309.104L1310.29 404.3L1320.15 398.653L1323.5 404.492L1305.98 414.495H1306.03Z" fill="#3C4043"/>
<path d="M1331.16 400.473L1293.54 290.2L1307.08 284.648L1357.58 389.656L1349.34 393.006L1334.46 361.226L1327.66 364.002L1339.34 397.122L1331.11 400.473H1331.16ZM1325.22 357.78L1331.83 355.052L1303.06 293.359L1302.44 293.598L1325.22 357.732V357.78Z" fill="#3C4043"/>
<path d="M1366.67 386.881L1365 380.468L1349.82 278.045L1339.34 280.773L1337.67 274.264L1356.24 269.43L1357.91 275.747L1372.99 378.314L1384.48 375.299L1386.2 381.808L1366.67 386.881Z" fill="#3C4043"/>
<path d="M1401.37 341.268L1381.12 264.26L1390.27 263.111L1404.19 329.111H1404L1401.51 261.723L1410.66 260.622L1409.79 340.215L1401.32 341.268H1401.37ZM1405.77 378.409L1400.32 334.041L1409.12 332.94L1414.58 377.308L1405.77 378.409Z" fill="#3C4043"/>
<path d="M1453.78 375.776L1464.79 260L1479.62 261.388C1486.32 262.01 1489.58 266.078 1489.39 273.545C1489.2 281.011 1487.95 296.614 1485.7 320.401C1483.45 344.236 1481.68 359.838 1480.49 367.161C1479.29 374.484 1475.32 377.834 1468.62 377.212L1453.78 375.824V375.776ZM1463.16 369.841L1466.7 370.176C1469.43 370.416 1471.3 367.927 1472.21 362.614C1473.16 357.302 1474.74 342.991 1476.94 319.683C1479.15 296.279 1480.34 281.92 1480.39 276.464C1480.49 271.056 1479.15 268.232 1476.42 267.945L1472.92 267.61L1463.21 369.841H1463.16Z" fill="#3C4043"/>
<path d="M1503.12 383.817C1495.27 381.902 1491.97 377.116 1493.21 369.506C1494.45 361.848 1497.9 346.533 1503.5 323.464C1509.1 300.49 1513.07 285.27 1515.47 277.852C1517.86 270.433 1522.98 267.657 1530.88 269.572C1538.82 271.486 1542.12 276.32 1540.83 284.026C1539.54 291.732 1536.14 307.095 1530.54 330.021C1524.94 353.09 1520.97 368.309 1518.58 375.632C1516.18 383.003 1511.06 385.731 1503.12 383.817ZM1504.79 377.212C1507.14 377.786 1509.2 375.441 1511.01 370.224C1512.83 365.007 1516.52 350.888 1522.07 327.962C1527.67 304.893 1530.88 290.631 1531.64 285.175C1532.46 279.671 1531.64 276.655 1529.35 276.081C1526.9 275.507 1524.75 277.804 1522.98 283.069C1521.21 288.333 1517.52 302.452 1511.92 325.522C1506.37 348.447 1503.17 362.662 1502.35 368.166C1501.54 373.67 1502.35 376.685 1504.79 377.26V377.212Z" fill="#3C4043"/>
<path d="M1537.2 394.585C1530.59 391.905 1528.49 386.975 1530.88 379.7C1533.27 372.473 1539.06 357.492 1548.25 334.806C1557.49 312.072 1563.67 297.522 1566.78 291.157C1569.89 284.791 1575.25 283.116 1582.81 286.179C1590.18 289.194 1592.72 294.268 1590.42 301.495C1588.12 308.722 1584.15 319.108 1578.65 332.748L1570.51 329.446C1576.21 315.374 1579.84 305.946 1581.42 301.112C1583 296.278 1582.62 293.358 1580.32 292.449C1577.98 291.492 1575.77 293.071 1573.72 297.092C1571.66 301.16 1565.77 314.992 1556.2 338.683C1547.15 361.034 1541.79 374.77 1540.17 379.844C1538.54 384.917 1538.83 387.884 1541.03 388.794C1542.61 389.464 1544.19 389.129 1545.67 387.884C1547.15 386.64 1549.64 381.71 1553.18 373.095L1561.08 353.616L1556.44 351.749L1558.88 345.766L1571.42 350.84L1551.6 399.706L1546.96 397.839L1548.49 392.91C1545.72 395.973 1541.94 396.595 1537.29 394.68L1537.2 394.585Z" fill="#3C4043"/>
<path d="M1571.94 411.817C1564.91 407.701 1562.9 402.627 1565.87 396.645C1568.83 390.662 1574.86 379.989 1583.86 364.673L1591.42 369.124C1582.28 384.679 1576.83 394.395 1574.96 398.32C1573.09 402.244 1573.24 404.781 1575.25 405.978C1577.45 407.27 1579.75 406.169 1582.28 402.723C1584.77 399.277 1587.45 395.065 1590.37 390.183C1594.77 382.669 1597.69 377.165 1599.13 373.671C1600.57 370.177 1600.28 366.492 1598.36 362.615C1595.3 356.824 1594.49 351.799 1595.88 347.443C1597.26 343.136 1600.33 337.01 1605.02 329.017C1608.13 323.704 1611.62 318.248 1615.5 312.6C1619.38 306.953 1624.83 306.187 1631.82 310.303C1638.81 314.419 1640.72 319.588 1637.61 325.906C1634.5 332.176 1628.71 342.561 1620.24 356.968L1612.58 352.469C1621.24 337.727 1626.55 328.251 1628.52 324.135C1630.48 319.971 1630.43 317.339 1628.33 316.094C1626.27 314.898 1623.87 316.094 1621.29 319.875C1618.66 323.608 1616.07 327.677 1613.44 332.128C1609.42 338.972 1606.74 344.141 1605.35 347.683C1603.96 351.224 1604.2 354.958 1606.07 358.834C1609.09 364.673 1609.99 369.699 1608.7 373.863C1607.41 378.027 1604.2 384.488 1599.08 393.199C1595.78 398.798 1592.24 404.35 1588.46 409.854C1584.63 415.358 1579.17 416.028 1572.04 411.864L1571.94 411.817Z" fill="#3C4043"/>
<circle cx="1446.28" cy="631.644" r="226.293" stroke="#FF6D7F" stroke-width="10" stroke-linejoin="round" stroke-dasharray="22.24 22.24"/>
<path d="M214.622 665.005L98.3672 661.894L98.6544 650.599L206.916 653.518L208.544 592.304L216.537 592.495L214.574 665.005H214.622Z" fill="#3C4043"/>
<path d="M216.058 577.612L129.094 487.49L136.369 471.6L261.382 478.444L256.452 489.165L219.504 487.059L195.238 540.185L220.987 566.748L216.01 577.66L216.058 577.612ZM189.16 534.92L211.511 485.958L138.905 482.129L138.762 482.464L189.16 534.92Z" fill="#3C4043"/>
<path d="M269.758 470.546L264.11 464.133L250.613 343.235L199.019 388.512L193.754 382.482L255.016 328.733L260.377 334.812L274.161 455.901L329.153 407.657L334.514 413.735L269.853 470.498L269.758 470.546Z" fill="#3C4043"/>
<path d="M375.101 347.495L309.723 294.273L321.784 290.396L377.638 336.917L376.489 337.3L394.963 266.992L406.929 263.163L384.817 344.431L375.053 347.542L375.101 347.495ZM388.55 391.144L372.66 341.512L383.429 338.066L399.319 387.698L388.55 391.144Z" fill="#3C4043"/>
<path d="M501.934 374.01L534.862 262.445L580.952 276.086C595.55 280.393 605.266 287.62 610.052 297.767C614.838 307.913 614.12 323.516 607.898 344.623C601.676 365.73 593.779 379.227 584.255 385.209C574.73 391.144 562.622 392.006 548.024 387.698L501.934 374.058V374.01ZM515.048 369.511L547.593 379.131C559.128 382.529 568.796 381.907 576.693 377.216C584.59 372.526 591.338 360.609 596.986 341.464C602.681 322.176 603.495 308.488 599.379 300.304C595.311 292.167 587.509 286.376 575.975 282.978L543.429 273.358L515.048 369.511Z" fill="#3C4043"/>
<path d="M643.697 441.494C630.966 430.199 624.17 418.186 623.356 405.359C622.542 392.532 629.147 378.222 643.123 362.428C657.194 346.585 670.595 338.21 683.422 337.444C696.249 336.63 709.028 341.895 721.806 353.19C734.633 364.533 741.43 376.594 742.195 389.421C742.961 402.248 736.308 416.606 722.237 432.496C708.214 448.338 694.813 456.618 682.034 457.384C669.255 458.15 656.428 452.837 643.649 441.494H643.697ZM649.057 435.559C658.486 443.887 668.393 447.812 678.875 447.381C689.357 446.95 700.987 439.436 713.766 424.982C726.688 410.384 732.719 397.893 731.953 387.411C731.187 376.929 726.066 367.549 716.685 359.173C707.257 350.845 697.302 346.921 686.772 347.399C676.243 347.878 664.564 355.392 651.642 369.99C638.863 384.444 632.88 396.888 633.694 407.369C634.508 417.851 639.629 427.232 649.057 435.559Z" fill="#3C4043"/>
<path d="M710.226 532.335C703.717 516.876 703.286 503.714 708.982 492.897C714.677 482.081 726.978 472.652 745.835 464.707C764.692 456.762 780.008 454.608 791.686 458.198C803.364 461.835 812.506 471.551 819.158 487.393C825.572 502.565 826.29 515.296 821.312 525.491C816.335 535.685 808.007 543.247 796.329 548.177L791.925 537.695C802.263 533.244 809.347 527.07 813.224 519.221C817.1 511.372 816.67 501.847 811.884 490.552C806.954 478.874 799.87 471.503 790.633 468.584C781.396 465.616 767.851 467.914 750.095 475.38C732.913 482.607 722 490.648 717.453 499.406C712.907 508.165 713.05 518.407 717.98 530.037C722.622 541.046 728.318 548.225 735.114 551.527C741.91 554.83 750.286 554.447 760.289 550.378L768.473 546.932L755.742 516.684L762.347 513.908L779.721 555.212L729.562 576.367L726.547 569.236L746.218 560.381C730.711 561.769 718.746 552.484 710.322 532.43L710.226 532.335Z" fill="#3C4043"/>
<path d="M731.382 640.693C731.909 623.942 735.498 612.025 742.247 605.037C748.995 598.049 760.53 594.747 776.898 595.273L776.563 606.568C762.157 606.138 752.441 608.818 747.464 614.609C742.486 620.4 739.806 629.159 739.423 640.885C739.088 652.467 740.811 661.369 744.592 667.591C748.373 673.813 753.542 676.972 760.147 677.211C767.948 677.451 773.548 674.148 776.946 667.352C780.344 660.556 783.743 650.936 787.093 638.587C791.065 624.181 795.325 613.508 799.776 606.664C804.227 599.82 811.215 596.517 820.739 596.757C829.45 597.044 836.533 601.016 841.942 608.674C847.35 616.38 849.791 628.202 849.312 644.235C848.834 660.939 845.148 672.808 838.352 679.892C831.556 686.975 820.404 690.278 804.849 689.799L805.184 678.36C819.256 678.791 828.732 676.015 833.566 670.128C838.4 664.241 841.032 655.435 841.367 643.852C841.702 632.366 840.027 623.511 836.294 617.337C832.561 611.115 827.631 607.956 821.409 607.765C813.943 607.526 808.439 610.828 804.849 617.672C801.26 624.516 797.862 633.945 794.559 646.006C790.491 660.747 786.375 671.612 782.163 678.552C777.951 685.491 770.916 688.794 761.056 688.507C751.867 688.22 744.496 684.295 738.944 676.733C733.393 669.171 730.856 657.205 731.382 640.837V640.693Z" fill="#3C4043"/>
<circle cx="473.328" cy="631.645" r="226.293" stroke="#FF6D7F" stroke-width="10" stroke-linejoin="round" stroke-dasharray="22.24 22.24"/>
</svg>
